SVG_Azure_All/Conditional Access.svg

<?xml version="1.0" encoding="UTF-8" standalone="no"?>
<!-- Generated by Microsoft Visio, SVG Export Conditional Access.svg Page-1 -->

<svg
   xmlns:dc="http://purl.org/dc/elements/1.1/"
   xmlns:cc="http://creativecommons.org/ns#"
   xmlns:rdf="http://www.w3.org/1999/02/22-rdf-syntax-ns#"
   xmlns:svg="http://www.w3.org/2000/svg"
   xmlns="http://www.w3.org/2000/svg"
   xmlns:sodipodi="http://sodipodi.sourceforge.net/DTD/sodipodi-0.dtd"
   xmlns:inkscape="http://www.inkscape.org/namespaces/inkscape"
   width="0.78738457in"
   height="0.78747308in"
   viewBox="0 0 56.691597 56.698373"
   xml:space="preserve"
   class="st5"
   version="1.1"
   id="svg59"
   sodipodi:docname="Conditional Access.svg"
   style="font-size:12px;overflow:visible;color-interpolation-filters:sRGB;fill:none;fill-rule:evenodd;stroke-linecap:square;stroke-miterlimit:3"
   inkscape:version="0.92.5 (2060ec1f9f, 2020-04-08)"><metadata
   id="metadata63"><rdf:RDF><cc:Work
       rdf:about=""><dc:format>image/svg+xml</dc:format><dc:type
         rdf:resource="http://purl.org/dc/dcmitype/StillImage" /></cc:Work></rdf:RDF></metadata><sodipodi:namedview
   pagecolor="#ffffff"
   bordercolor="#666666"
   borderopacity="1"
   objecttolerance="10"
   gridtolerance="10"
   guidetolerance="10"
   inkscape:pageopacity="0"
   inkscape:pageshadow="2"
   inkscape:window-width="640"
   inkscape:window-height="480"
   id="namedview61"
   showgrid="false"
   inkscape:zoom="1.4193119"
   inkscape:cx="37.795128"
   inkscape:cy="37.788674"
   inkscape:window-x="0"
   inkscape:window-y="0"
   inkscape:window-maximized="0"
   inkscape:current-layer="svg59" />
	<style
   type="text/css"
   id="style2">
	<![CDATA[
		.st1 {fill:#86d633;stroke:none;stroke-linecap:butt;stroke-width:34}
		.st2 {fill:url(#grad0-8);stroke:none;stroke-linecap:butt;stroke-width:34}
		.st3 {fill:#9cebff;stroke:none;stroke-linecap:butt;stroke-width:34}
		.st4 {fill:#0078d4;stroke:none;stroke-linecap:butt;stroke-width:34}
		.st5 {fill:none;fill-rule:evenodd;font-size:12px;overflow:visible;stroke-linecap:square;stroke-miterlimit:3}
	]]>
	</style>

	<defs
   id="Patterns_And_Gradients">
		<linearGradient
   id="grad0-8"
   x1="0"
   y1="74.529411"
   x2="39.73719"
   y2="74.529411"
   gradientTransform="scale(0.91627012,1.0913812)"
   gradientUnits="userSpaceOnUse">
			<stop
   offset="0"
   stop-color="#5e9624"
   stop-opacity="1"
   id="stop4" />
			<stop
   offset="0.26"
   stop-color="#70a828"
   stop-opacity="1"
   id="stop6" />
			<stop
   offset="0.79"
   stop-color="#9fd732"
   stop-opacity="1"
   id="stop8" />
			<stop
   offset="1"
   stop-color="#b4ec36"
   stop-opacity="1"
   id="stop10" />
		</linearGradient>
	</defs>
	<g
   id="g57"
   transform="translate(-34.000441,-33.99779)">
		<title
   id="title14">Page-1</title>
		<g
   id="group6253-1"
   transform="translate(34,-34.0157)">
			<title
   id="title16">Conditional Access</title>
			<g
   id="group6254-2">
				<title
   id="title18">Icon-intune-336</title>
				<g
   id="shape6255-3"
   transform="translate(0,-9.40651)">
					<title
   id="title20">Sheet.6255</title>
					<path
   d="m 39.7,99.5 c 0,12.71 -15.79,22.94 -19.21,25.01 a 1.1755,1.16721 0 0 1 -1.31,0 C 15.75,122.44 0,112.21 0,99.5 V 84.19 a 1.24268,1.2339 0 0 1 1.21,-1.2 c 12.26,-0.33 9.44,-5.57 18.64,-5.57 9.2,0 6.35,5.24 18.57,5.57 a 1.27626,1.26725 0 0 1 1.24,1.2 z"
   class="st1"
   id="path22"
   inkscape:connector-curvature="0"
   style="fill:#86d633;stroke:none;stroke-width:34;stroke-linecap:butt" />
				</g>
				<g
   id="shape6256-5"
   transform="translate(1.64571,-11.3605)">
					<title
   id="title25">Sheet.6256</title>
					<path
   d="m 36.41,101.59 c 0,11.67 -14.48,21.04 -17.6,22.94 a 1.10833,1.10051 0 0 1 -1.21,0 C 14.44,122.63 0,113.26 0,101.59 V 87.71 a 1.10833,1.10051 0 0 1 1.11,-1.1 c 11.25,-0.46 8.8,-5.27 17.09,-5.27 8.3,0 5.85,4.81 17.07,5.11 a 1.14192,1.13386 0 0 1 1.14,1.1 z"
   class="st2"
   id="path27"
   inkscape:connector-curvature="0"
   style="fill:url(#grad0-8);stroke:none;stroke-width:34;stroke-linecap:butt" />
				</g>
				<g
   id="shape6257-9"
   transform="translate(18.002)">
					<title
   id="title30">Sheet.6257</title>
					<path
   d="m 1.24,95.19 h 36.21 a 1.1755,1.16721 0 0 1 1.24,1.11 v 27.31 a 1.1755,1.16721 0 0 1 -1.24,1.1 H 1.24 A 1.20909,1.20056 0 0 1 0,123.61 V 96.36 a 1.20909,1.20056 0 0 1 1.24,-1.17 z"
   class="st3"
   id="path32"
   inkscape:connector-curvature="0"
   style="fill:#9cebff;stroke:none;stroke-width:34;stroke-linecap:butt" />
				</g>
				<g
   id="shape6258-11"
   transform="translate(18.002,-4.46874)">
					<title
   id="title35">Sheet.6258</title>
					<path
   d="m 1.18,99.66 h 36.34 a 1.10833,1.10051 0 0 1 1.17,1.04 v 4.13 H 0 v -4 A 1.10833,1.10051 0 0 1 1.18,99.8 Z m 32.24,15.88 H 9.54 c -0.54,0 -0.94,0.26 -0.94,0.53 v 1.44 c 0,0.3 0.4,0.53 0.94,0.53 h 23.88 c 0.54,0 0.97,-0.23 0.97,-0.53 v -1.34 c 0,-0.37 -0.54,-0.63 -0.97,-0.63 z m 0,-6.01 H 9.54 c -0.54,0 -0.94,0.24 -0.94,0.54 v 1.3 c 0,0.3 0.4,0.53 0.94,0.53 h 23.88 c 0.54,0 0.97,-0.23 0.97,-0.53 v -1.3 c 0,-0.3 -0.54,-0.54 -0.97,-0.54 z m 0,12.78 H 9.54 c -0.54,0 -0.94,0.23 -0.94,0.53 v 1.34 c 0,0.3 0.4,0.53 0.94,0.53 h 23.88 c 0.54,0 0.97,-0.23 0.97,-0.53 v -1.34 c 0,-0.3 -0.54,-0.53 -0.97,-0.53 z"
   class="st4"
   id="path37"
   inkscape:connector-curvature="0"
   style="fill:#0078d4;stroke:none;stroke-width:34;stroke-linecap:butt" />
				</g>
				<g
   id="shape6259-13"
   transform="translate(21.0583,-16.9078)">
					<title
   id="title40">Sheet.6259</title>
					<ellipse
   cx="1.57853"
   cy="123.141"
   rx="1.57853"
   ry="1.56739"
   class="st4"
   id="ellipse42"
   style="fill:#0078d4;stroke:none;stroke-width:34;stroke-linecap:butt" />
				</g>
				<g
   id="shape6260-15"
   transform="translate(21.0583,-10.8717)">
					<title
   id="title45">Sheet.6260</title>
					<ellipse
   cx="1.57853"
   cy="123.141"
   rx="1.57853"
   ry="1.56739"
   class="st4"
   id="ellipse47"
   style="fill:#0078d4;stroke:none;stroke-width:34;stroke-linecap:butt" />
				</g>
				<g
   id="shape6261-17"
   transform="translate(21.0583,-4.1019)">
					<title
   id="title50">Sheet.6261</title>
					<ellipse
   cx="1.57853"
   cy="123.141"
   rx="1.57853"
   ry="1.56739"
   class="st4"
   id="ellipse52"
   style="fill:#0078d4;stroke:none;stroke-width:34;stroke-linecap:butt" />
				</g>
			</g>
		</g>
	</g>
</svg>

<?xml version="1.0" encoding="UTF-8" standalone="no"?>
<!DOCTYPE svg PUBLIC "-//W3C//DTD SVG 1.1//EN" "http://www.w3.org/Graphics/SVG/1.1/DTD/svg11.dtd">
<!-- Generated by Microsoft Visio, SVG Export Conditional Access.svg Page-1 -->
<svg xmlns="http://www.w3.org/2000/svg" xmlns:xlink="http://www.w3.org/1999/xlink" xmlns:ev="http://www.w3.org/2001/xml-events"
		width="1.73185in" height="1.73206in" viewBox="0 0 124.693 124.709" xml:space="preserve" color-interpolation-filters="sRGB"
		class="st5">
	<style type="text/css">
	<![CDATA[
		.st1 {fill:#86d633;stroke:none;stroke-linecap:butt;stroke-width:34}
		.st2 {fill:url(#grad0-8);stroke:none;stroke-linecap:butt;stroke-width:34}
		.st3 {fill:#9cebff;stroke:none;stroke-linecap:butt;stroke-width:34}
		.st4 {fill:#0078d4;stroke:none;stroke-linecap:butt;stroke-width:34}
		.st5 {fill:none;fill-rule:evenodd;font-size:12px;overflow:visible;stroke-linecap:square;stroke-miterlimit:3}
	]]>
	</style>

	<defs id="Patterns_And_Gradients">
		<linearGradient id="grad0-8" x1="0" y1="0" x2="1" y2="0" gradientTransform="rotate(-124.76538136097 0.5 0.5)">
			<stop offset="0" stop-color="#5e9624" stop-opacity="1"/>
			<stop offset="0.26" stop-color="#70a828" stop-opacity="1"/>
			<stop offset="0.79" stop-color="#9fd732" stop-opacity="1"/>
			<stop offset="1" stop-color="#b4ec36" stop-opacity="1"/>
		</linearGradient>
	</defs>
	<g>
		<title>Page-1</title>
		<g id="group6085-1" transform="translate(34,-34.0157)">
			<title>Conditional Access</title>
			<g id="group6086-2">
				<title>Icon-intune-336</title>
				<g id="shape6087-3" transform="translate(0,-9.40651)">
					<title>Sheet.6087</title>
					<path d="M39.7 99.5 C39.7 112.21 23.91 122.44 20.49 124.51 A1.1755 1.16721 0 0 1 19.18 124.51 C15.75 122.44 0
								 112.21 0 99.5 L0 84.19 A1.24268 1.2339 0 0 1 1.21 82.99 C13.47 82.66 10.65 77.42 19.85 77.42 C29.05
								 77.42 26.2 82.66 38.42 82.99 A1.27626 1.26725 0 0 1 39.66 84.19 L39.7 99.5 Z" class="st1"/>
				</g>
				<g id="shape6088-5" transform="translate(1.64571,-11.3605)">
					<title>Sheet.6088</title>
					<path d="M36.41 101.59 C36.41 113.26 21.93 122.63 18.81 124.53 A1.10833 1.10051 0 0 1 17.6 124.53 C14.44 122.63
								 0 113.26 0 101.59 L0 87.71 A1.10833 1.10051 0 0 1 1.11 86.61 C12.36 86.15 9.91 81.34 18.2 81.34
								 C26.5 81.34 24.05 86.15 35.27 86.45 A1.14192 1.13386 0 0 1 36.41 87.55 L36.41 101.59 Z"
							class="st2"/>
				</g>
				<g id="shape6089-9" transform="translate(18.002,1.42109E-14)">
					<title>Sheet.6089</title>
					<path d="M1.24 95.19 L37.45 95.19 A1.1755 1.16721 0 0 1 38.69 96.3 L38.69 123.61 A1.1755 1.16721 0 0 1 37.45
								 124.71 L1.24 124.71 A1.20909 1.20056 0 0 1 0 123.61 L0 96.36 A1.20909 1.20056 0 0 1 1.24 95.19 Z"
							class="st3"/>
				</g>
				<g id="shape6090-11" transform="translate(18.002,-4.46874)">
					<title>Sheet.6090</title>
					<path d="M1.18 99.66 L37.52 99.66 A1.10833 1.10051 0 0 1 38.69 100.7 L38.69 104.83 L0 104.83 L0 100.83 A1.10833
								 1.10051 0 0 1 1.18 99.8 L1.18 99.66 ZM33.42 115.54 L9.54 115.54 C9 115.54 8.6 115.8 8.6 116.07 L8.6
								 117.51 C8.6 117.81 9 118.04 9.54 118.04 L33.42 118.04 C33.96 118.04 34.39 117.81 34.39 117.51 L34.39
								 116.17 C34.39 115.8 33.85 115.54 33.42 115.54 ZM33.42 109.53 L9.54 109.53 C9 109.53 8.6 109.77 8.6
								 110.07 L8.6 111.37 C8.6 111.67 9 111.9 9.54 111.9 L33.42 111.9 C33.96 111.9 34.39 111.67 34.39 111.37
								 L34.39 110.07 C34.39 109.77 33.85 109.53 33.42 109.53 ZM33.42 122.31 L9.54 122.31 C9 122.31 8.6
								 122.54 8.6 122.84 L8.6 124.18 C8.6 124.48 9 124.71 9.54 124.71 L33.42 124.71 C33.96 124.71 34.39
								 124.48 34.39 124.18 L34.39 122.84 C34.39 122.54 33.85 122.31 33.42 122.31 Z" class="st4"/>
				</g>
				<g id="shape6091-13" transform="translate(21.0583,-16.9078)">
					<title>Sheet.6091</title>
					<ellipse cx="1.57853" cy="123.141" rx="1.57853" ry="1.56739" class="st4"/>
				</g>
				<g id="shape6092-15" transform="translate(21.0583,-10.8717)">
					<title>Sheet.6092</title>
					<ellipse cx="1.57853" cy="123.141" rx="1.57853" ry="1.56739" class="st4"/>
				</g>
				<g id="shape6093-17" transform="translate(21.0583,-4.1019)">
					<title>Sheet.6093</title>
					<ellipse cx="1.57853" cy="123.141" rx="1.57853" ry="1.56739" class="st4"/>
				</g>
			</g>
		</g>
	</g>
</svg>
